brandFactory_export/3.Masa/Renovar equipo_Cambiar movil_3Masa.svg

<?xml version="1.0" encoding="UTF-8"?>
<svg width="24px" height="24px" viewBox="0 0 24 24" version="1.1" xmlns="http://www.w3.org/2000/svg" xmlns:xlink="http://www.w3.org/1999/xlink">
    <title>3.Masa/Renovar equipo_Cambiar movil_3Masa</title>
    <g id="Symbols" stroke="none" stroke-width="1" fill="none" fill-rule="evenodd">
        <g id="3.Masa/Renovar-equipo_Cambiar-movil_3Masa" fill="#5CB615" fill-rule="nonzero">
            <path d="M2.84705882,10.2352941 C3.17310924,10.2352941 3.43529412,9.97310924 3.43529412,9.64705882 L3.43529412,8.88067227 C3.43529412,7.24033613 4.19831933,6.47731092 5.83865546,6.47731092 L5.91596639,6.47731092 C5.80168067,6.57478992 5.68403361,6.67563025 5.57310924,6.77310924 C5.32436975,6.98151261 5.2907563,7.3512605 5.49915966,7.60336134 C5.70756303,7.85210084 6.07731092,7.88571429 6.32941176,7.67731092 L6.3394958,7.66722689 C6.50420168,7.52605042 7.33109244,6.81344538 7.48571429,6.66218487 C7.96638655,6.18151261 7.96302521,5.57983193 7.4789916,5.09579832 C7.17983193,4.79663866 6.37310924,4.10756303 6.3394958,4.08067227 C6.0907563,3.86890756 5.7210084,3.89915966 5.5092437,4.14789916 C5.29747899,4.39663866 5.32773109,4.76638655 5.57647059,4.97815126 C5.6605042,5.0487395 5.80168067,5.1697479 5.95630252,5.30756303 L5.84201681,5.30756303 C4.72268908,5.30756303 3.84201681,5.61008403 3.22689076,6.20168067 C2.58487395,6.82016807 2.26215291,7.72436975 2.26215291,8.88739496 L2.26215291,9.65378151 C2.25882353,9.97310924 2.5210084,10.2352941 2.84705882,10.2352941 L2.84705882,10.2352941 Z M22.6789916,2.90084034 C22.0672269,2.3092437 21.1932773,2.01008403 20.087395,2.01008403 L12.7193277,2.01008403 C11.6134454,2.01008403 10.7428571,2.3092437 10.1277311,2.90084034 C9.48907563,3.51596639 9.16638655,4.41008403 9.16638655,5.56302521 L9.16638655,19.4352941 C9.16638655,20.5848739 9.48907563,21.4823529 10.1277311,22.097479 C10.7394958,22.6890756 11.6134454,22.9882353 12.7193277,22.9882353 L20.0907563,22.9882353 C21.1966387,22.9882353 22.0672269,22.6890756 22.6823529,22.097479 C23.3210084,21.4823529 23.6436975,20.5882353 23.6436975,19.4352941 L23.6436975,5.56302521 C23.6403361,4.41344538 23.3176471,3.51932773 22.6789916,2.90084034 Z M16.9546218,20.2991597 C16.8201681,20.4336134 16.6252101,20.497479 16.3865546,20.497479 C16.1478992,20.497479 15.9529412,20.4336134 15.8184874,20.2991597 C15.697479,20.1747899 15.6268908,19.9932773 15.6268908,19.7445378 C15.6268908,19.2302521 15.9260504,18.9915966 16.3865546,18.9915966 C16.8470588,18.9915966 17.1462185,19.2302521 17.1462185,19.7445378 C17.1462185,19.989916 17.0756303,20.1747899 16.9546218,20.2991597 L16.9546218,20.2991597 Z M5.76470588,11.5193277 L2.14117647,11.5193277 C0.810084034,11.5193277 0.0168067227,12.312605 0.0168067227,13.6436975 L0.0168067227,20.8336134 C0.0168067227,22.1647059 0.810084034,22.9579832 2.14117647,22.9579832 L5.76470588,22.9579832 C7.09579832,22.9579832 7.88907563,22.1647059 7.88907563,20.8336134 L7.88907563,13.6436975 C7.88571429,12.312605 7.09243697,11.5193277 5.76470588,11.5193277 Z M4.4302521,20.7327731 C4.34957983,20.8134454 4.23529412,20.8504202 4.0907563,20.8504202 C3.94621849,20.8504202 3.83193277,20.810084 3.7512605,20.7327731 C3.67731092,20.6588235 3.63697479,20.5478992 3.63697479,20.4033613 C3.63697479,20.097479 3.81512605,19.9563025 4.08739496,19.9563025 C4.35966387,19.9563025 4.54117647,20.097479 4.54117647,20.4033613 C4.54453782,20.5478992 4.50084034,20.6588235 4.4302521,20.7327731 Z" id="Renovar-equipo_Cambiar-movil_3Masa"></path>
        </g>
    </g>
</svg>

<svg width="24" height="24" viewBox="0 0 24 24" xmlns="http://www.w3.org/2000/svg"><path d="M2.847 10.235a.587.587 0 00.588-.588v-.766c0-1.64.763-2.404 2.404-2.404h.077l-.343.296a.59.59 0 00.756.904l.01-.01c.165-.14.992-.854 1.147-1.005.48-.48.477-1.082-.007-1.566-.3-.3-1.106-.988-1.14-1.015a.587.587 0 00-.83.067.587.587 0 00.067.83c.085.07.226.192.38.33h-.114c-1.12 0-2 .302-2.615.894-.642.618-.965 1.522-.965 2.685v.767a.58.58 0 00.585.581zM22.68 2.901c-.612-.592-1.486-.89-2.592-.89H12.72c-1.106 0-1.976.298-2.591.89-.639.615-.962 1.51-.962 2.662v13.872c0 1.15.323 2.047.962 2.662.611.592 1.485.891 2.591.891h7.372c1.106 0 1.976-.299 2.591-.89.639-.616.962-1.51.962-2.663V5.563c-.004-1.15-.326-2.044-.965-2.662zm-5.724 17.398c-.135.135-.33.198-.568.198-.24 0-.434-.063-.569-.198-.12-.124-.191-.306-.191-.554 0-.515.3-.753.76-.753s.76.238.76.753c0 .245-.071.43-.192.554zm-11.19-8.78H2.14c-1.33 0-2.124.794-2.124 2.125v7.19c0 1.33.793 2.124 2.124 2.124h3.624c1.33 0 2.124-.793 2.124-2.124v-7.19c-.003-1.331-.797-2.125-2.124-2.125zM4.43 20.733c-.08.08-.195.117-.34.117a.473.473 0 01-.339-.117c-.074-.074-.114-.185-.114-.33 0-.306.178-.447.45-.447.273 0 .454.141.454.447a.449.449 0 01-.11.33z" fill="#5CB615" fill-rule="nonzero"/></svg>
